Assets/Scenes/City_Trees.cube
TITLE "Generated by Resolve"
LUT_3D_SIZE 33
0.0217441 0.0229191 0.0209659
0.0494698 0.0217441 0.0214237
0.0788739 0.0156405 0.0155337
0.104768 0.0108492 0.00903334
0.132708 0.00483711 0.00274662
0.158175 0 0
0.184634 0 0
0.21294 0 0
0.239078 0 0
0.269978 0 0
0.298299 0 0
0.318349 0 0
0.336492 0 0
0.345876 0 0
0.358831 0 0
0.374166 0 0
0.391455 0 0
0.408377 0 0
0.428046 0 0
0.446204 0 0
0.462318 0 0
0.479896 0 0
0.498116 0 0
0.516304 0 0
0.534524 0 0
0.552361 0 0
0.570642 0 0
0.586465 0 0
0.60145 0 0
0.615335 0 0
0.627558 0 0
0.638911 0 0
0.650492 0 0
0.0301518 0.0662699 0.0298466
0.070161 0.0695201 0.0301671
0.107774 0.0640879 0.0244907
0.140063 0.052491 0.0124361
0.173266 0.0379339 0
0.202502 0.0207523 0
0.231632 0.00794995 0
0.256184 0 0
0.278721 0 0
0.309071 0 0
0.336004 0 0
0.357275 0 0
0.373053 0 0
0.383444 0 0
0.399359 0 0
0.414969 0 0
0.432944 0 0
0.454963 0 0
0.473335 0 0
0.491508 0 0
0.510765 0 0
0.528923 0 0
0.54728 0 0
0.562722 0 0
0.577066 0 0
0.590692 0 0
0.603357 0.00325017 0
0.614893 0.00654612 0
0.625772 0.00959792 0
0.636561 0.0127108 0
0.646677 0.0154879 0
0.657221 0.0180667 0
0.667247 0.0210575 0
0.018204 0.105303 0.0179141
0.0635843 0.11162 0.0183108
0.112612 0.11249 0.0143282
0.158846 0.105074 0.00289921
0.200519 0.0887007 0
0.239384 0.0699931 0
0.273854 0.0509651 0
0.304814 0.0346227 0
0.332906 0.0197604 0
0.359472 0.00750744 0
0.382727 0.00047303 0
0.404746 0 0
0.421088 0.00178531 0
0.434836 0.00935378 0
0.450263 0.012253 0
0.466377 0.0153811 0
0.484489 0.0150912 0
0.500801 0.0162203 0
0.515801 0.0184634 0
0.531197 0.0204166 0
0.545754 0.0220798 0
0.559945 0.0241703 0
0.573556 0.0260929 0
0.586938 0.028275 0
0.59968 0.0304723 0
0.6121 0.0325475 0
0.622095 0.0348821 0
0.631052 0.038468 0
0.63888 0.0409857 0
0.648554 0.0430762 0
0.657664 0.0461891 0
0.66601 0.0487068 0
0.67393 0.0515602 0
0 0.142351 0
0.0378119 0.146471 0
0.09897 0.155718 0
0.156771 0.154894 0
0.208743 0.144564 0
0.254292 0.126345 0
0.296818 0.107454 0
0.335271 0.0897383 0
0.367636 0.0741894 0
0.396674 0.0602426 0
0.42211 0.0531624 0
0.445014 0.0466926 0
0.455344 0.0520333 0
0.46865 0.054902 0
0.480339 0.0572976 0
0.493034 0.0594492 0
0.509834 0.0585946 0
0.525872 0.0583963 0
0.541222 0.0582132 0
0.554192 0.0588235 0
0.566384 0.0599527 0
0.57821 0.0612955 0
0.590341 0.0630198 0
0.601312 0.0635233 0
0.611536 0.0655985 0
0.620569 0.0678874 0
0.628763 0.0701915 0
0.637339 0.0724651 0
0.646189 0.0738842 0
0.655528 0.0753948 0
0.662959 0.0781109 0
0.669734 0.080705 0
0.677256 0.08336 0
0 0.180682 0
0.00410468 0.183383 0
0.0647746 0.187991 0
0.13669 0.198672 0
0.199664 0.196597 0
0.254856 0.183902 0
0.300999 0.166293 0
0.343999 0.149966 0
0.381033 0.135424 0
0.415503 0.122789 0
0.436469 0.115587 0
0.457145 0.109514 0
0.469718 0.108888 0
0.48333 0.108232 0
0.494163 0.10927 0
0.505959 0.108904 0
0.521187 0.107485 0
0.536049 0.105837 0
0.550851 0.103593 0
0.563943 0.102556 0
0.575967 0.101823 0
0.587121 0.101457 0
0.596933 0.101106 0
0.606516 0.101137 0
0.61529 0.103044 0
0.622827 0.105318 0
0.629938 0.107607 0
0.637568 0.109712 0
0.645502 0.111254 0
0.654261 0.112657 0
0.663401 0.11397 0
0.670985 0.115511 0
0.67866 0.116793 0
0 0.217762 0
0 0.219562 0
0.0257725 0.223209 0
0.101747 0.23386 0
0.176501 0.240711 0
0.240696 0.236072 0
0.293553 0.224933 0
0.336355 0.211505 0
0.373892 0.197375 0
0.407111 0.186099 0
0.432563 0.178302 0
0.4542 0.17232 0
0.46891 0.168185 0
0.482994 0.164431 0
0.494224 0.162844 0
0.50695 0.160235 0
0.521553 0.156374 0
0.536385 0.152483 0
0.549889 0.149065 0
0.563073 0.146151 0
0.575128 0.144488 0
0.586007 0.143099 0
0.59617 0.142687 0
0.606027 0.142367 0
0.614664 0.142916 0
0.622049 0.144381 0
0.628626 0.145968 0
0.634989 0.147448 0
0.644251 0.148775 0
0.653635 0.150042 0
0.662135 0.151308 0
0.668025 0.152911 0
0.672709 0.155016 0
0 0.255436 0
0 0.25597 0
0 0.257374 0
0.0640574 0.26363 0
0.145144 0.276722 0
0.220554 0.280568 0
0.278706 0.274571 0
0.323888 0.265156 0
0.359503 0.252598 0
0.390936 0.242802 0
0.418173 0.234012 0
0.441489 0.226734 0
0.459617 0.221424 0
0.47599 0.216144 0
0.49015 0.210971 0
0.503792 0.205859 0
0.519127 0.200076 0
0.533486 0.1953 0
0.547265 0.191852 0
0.560433 0.188083 0
0.57116 0.185718 0
0.581079 0.183673 0
0.589517 0.182986 0
0.595789 0.183749 0
0.601816 0.18352 0
0.602518 0.186084 0
0.601373 0.189029 0
0.60087 0.191089 0
0.595422 0.195544 0.0028687
0.588617 0.200259 0.0176699
0.583932 0.203708 0.0298924
0.576608 0.208515 0.0449226
0.571237 0.212329 0.057847
0 0.288563 0
0 0.29041 0
0 0.287144 0
0.0327459 0.29308 0
0.115129 0.303304 0
0.202808 0.311543 0
0.265736 0.305241 0
0.302998 0.29955 0
0.330236 0.292515 0
0.352956 0.285542 0
0.375357 0.278035 0
0.390951 0.272496 0
0.403754 0.267842 0
0.415198 0.263874 0.00588998
0.427039 0.259663 0.0148318
0.439979 0.255009 0.0194247
0.455344 0.249104 0.0187228
0.468681 0.244297 0.0203708
0.477638 0.241886 0.0257725
0.486824 0.239231 0.0289311
0.494438 0.237156 0.032639
0.500755 0.23563 0.0370794
0.504433 0.235462 0.0446479
0.506752 0.236194 0.0541543
0.510369 0.236225 0.0607156
0.511391 0.238132 0.0687877
0.512993 0.23978 0.0752728
0.51458 0.241947 0.0816205
0.517784 0.243946 0.0876326
0.523079 0.245212 0.0916609
0.529351 0.246448 0.0952316
0.536187 0.247333 0.0980392
0.542977 0.248341 0.100755
0 0.317235 0
0 0.316838 0
0 0.315221 0
0.00727855 0.318059 0
0.0921645 0.325902 0
0.188556 0.326345 0
0.26247 0.323659 0.0110628
0.298131 0.324224 0.0244297
0.328649 0.324773 0.0276799
0.347799 0.318318 0.0296635
0.367453 0.312184 0.0332799
0.378882 0.30724 0.0446326
0.390875 0.302174 0.0535592
0.402655 0.298039 0.0594339
0.413916 0.293599 0.0652018
0.425071 0.288685 0.0699626
0.435828 0.28394 0.0742199
0.445518 0.280247 0.0773632
0.455192 0.277012 0.0795148
0.463615 0.273945 0.0811627
0.471397 0.27158 0.0831006
0.47892 0.269688 0.0848249
0.486748 0.268681 0.0878004
0.495247 0.268742 0.0910048
0.503578 0.268681 0.0943618
0.509697 0.269169 0.0964523
0.515633 0.269825 0.0986038
0.522057 0.270466 0.100877
0.529335 0.271015 0.103227
0.536751 0.271305 0.105013
0.54432 0.271656 0.106859
0.551598 0.27245 0.109392
0.557916 0.273442 0.112352
0 0.34316 0
0 0.342214 0
0 0.339773 0
0 0.336934 0
0.0768597 0.343557 0
0.186801 0.334508 0
0.255497 0.338735 0.0170748
0.293523 0.344717 0.0272068
0.325399 0.348226 0.0375677
0.348592 0.344808 0.0466163
0.369711 0.342016 0.0554208
0.383948 0.336568 0.0625467
0.398871 0.331029 0.0688487
0.410529 0.326452 0.0732891
0.422034 0.321111 0.0778821
0.433158 0.317067 0.0825666
0.444175 0.312627 0.0872816
0.45449 0.308553 0.0900587
0.464851 0.304891 0.0913558
0.474327 0.301564 0.0932326
0.482307 0.298924 0.0953994
0.490684 0.296941 0.0981613
0.499611 0.296056 0.100649
0.508583 0.295659 0.103548
0.517174 0.295369 0.10605
0.52372 0.295262 0.10811
0.530037 0.29546 0.110063
0.536522 0.29546 0.112001
0.544305 0.296178 0.114885
0.551461 0.296422 0.117098
0.558572 0.296803 0.119249
0.56556 0.296956 0.121324
0.572595 0.297398 0.123613
0 0.365103 0
0 0.3635 0
0 0.358862 0
0 0.357061 0
0.0707256 0.355581 0
0.189075 0.342473 0
0.247608 0.353262 0.0201572
0.289677 0.36495 0.0347448
0.322805 0.37026 0.0487831
0.350484 0.370993 0.0607919
0.372778 0.368887 0.0696574
0.389532 0.363928 0.0756847
0.405249 0.358999 0.0809644
0.41738 0.354055 0.0861372
0.429664 0.34847 0.0915236
0.440467 0.34403 0.0954604
0.452094 0.339498 0.0993362
0.46302 0.335088 0.100984
0.474678 0.330816 0.102602
0.484413 0.327382 0.104417
0.493278 0.324651 0.106416
0.502342 0.322866 0.10898
0.511162 0.321294 0.111452
0.520439 0.320104 0.113863
0.529076 0.318853 0.116106
0.536309 0.31902 0.118486
0.543923 0.31957 0.120867
0.551156 0.319936 0.123293
0.558892 0.320623 0.126131
0.566217 0.320562 0.128328
0.573281 0.320745 0.130724
0.580468 0.32079 0.13283
0.587655 0.321004 0.135195
0 0.380285 0
0 0.379004 0
0 0.37554 0
0.00932326 0.370871 0
0.101671 0.356924 0
0.192889 0.351812 0.0103761
0.243168 0.366033 0.0276188
0.286305 0.379538 0.0442054
0.31931 0.385534 0.0583505
0.349981 0.39028 0.0712291
0.372351 0.38999 0.0797589
0.392477 0.388357 0.0872969
0.409857 0.385168 0.0942245
0.423468 0.380301 0.10074
0.437034 0.37499 0.106065
0.447532 0.369512 0.107851
0.458869 0.364355 0.109697
0.471 0.359579 0.111101
0.483986 0.355291 0.113237
0.494728 0.352041 0.115206
0.504433 0.349874 0.117098
0.513664 0.348241 0.119265
0.523003 0.345602 0.12166
0.532479 0.343801 0.124285
0.541192 0.342489 0.126696
0.548745 0.342733 0.129274
0.556863 0.343206 0.132387
0.564477 0.34342 0.134859
0.572168 0.343755 0.137957
0.579446 0.343847 0.1402
0.586831 0.344213 0.142947
0.594018 0.344732 0.145724
0.601251 0.345342 0.148882
0 0.392844 0
0 0.388968 0
0 0.383581 0
0.0505684 0.370687 0
0.130495 0.358129 0
0.189685 0.363149 0.0134127
0.238422 0.378714 0.0310826
0.281086 0.392874 0.0479591
0.315648 0.400931 0.06421
0.349477 0.408927 0.0801251
0.371893 0.409674 0.0900282
0.394781 0.411109 0.100725
0.411902 0.408286 0.107942
0.427741 0.404181 0.114992
0.441886 0.399573 0.119707
0.453513 0.393912 0.120516
0.46569 0.388479 0.121721
0.478706 0.383932 0.123751
0.492241 0.3794 0.125917
0.503166 0.375875 0.127779
0.513237 0.373053 0.129656
0.52314 0.370626 0.131746
0.532464 0.368322 0.133745
0.541863 0.36701 0.136385
0.550835 0.366354 0.13872
0.559304 0.366766 0.142138
0.567895 0.366613 0.144747
0.576455 0.366674 0.147875
0.584421 0.367437 0.151125
0.592081 0.367941 0.153948
0.599786 0.368643 0.157107
0.607538 0.369177 0.160479
0.613977 0.370626 0.165148
0 0.387839 0
0.0130007 0.380072 0
0.0547036 0.372641 0
0.104677 0.365728 0.00317388
0.151324 0.366155 0.0208591
0.192676 0.375128 0.0247654
0.23856 0.390097 0.0412299
0.277928 0.403113 0.0564889
0.313024 0.413321 0.0734722
0.344915 0.421698 0.0891585
0.369528 0.425437 0.101747
0.394568 0.429786 0.114992
0.412467 0.42797 0.122072
0.430594 0.426398 0.129
0.445945 0.423011 0.132479
0.459083 0.418189 0.134127
0.472267 0.413352 0.136172
0.485435 0.408301 0.13817
0.498863 0.403601 0.140352
0.51014 0.399481 0.141634
0.521279 0.395697 0.142779
0.532235 0.393317 0.144991
0.541787 0.392172 0.147433
0.551095 0.391714 0.149767
0.559808 0.391165 0.152651
0.569177 0.390524 0.155718
0.577981 0.390372 0.159579
0.58674 0.390539 0.16321
0.594202 0.391211 0.167254
0.601495 0.391608 0.170718
0.608927 0.392737 0.174884
0.61593 0.393637 0.179187
0.621607 0.394903 0.183688
0.0433509 0.379171 0.0434272
0.0724193 0.375586 0.0415351
0.100008 0.373205 0.0383764
0.127153 0.373571 0.0354314
0.159197 0.379019 0.0339055
0.196323 0.387549 0.0372778
0.237278 0.400992 0.0510109
0.274327 0.413336 0.0662089
0.309239 0.425132 0.0838636
0.34023 0.434424 0.099855
0.367102 0.440467 0.113878
0.393256 0.446571 0.126497
0.412741 0.446998 0.133303
0.432746 0.44744 0.140459
0.449241 0.445243 0.145312
0.464195 0.441688 0.148913
0.478431 0.437629 0.151797
0.491829 0.432502 0.153903
0.505501 0.427634 0.155932
0.516762 0.423453 0.15697
0.52871 0.420096 0.158556
0.539559 0.417716 0.1608
0.549462 0.415732 0.16321
0.559182 0.414633 0.166049
0.568673 0.413626 0.168948
0.577859 0.413596 0.173129
0.586679 0.413565 0.176989
0.595422 0.41384 0.181247
0.60264 0.414816 0.185657
0.609873 0.416144 0.190036
0.616693 0.41738 0.194705
0.623468 0.418448 0.199115
0.629053 0.420417 0.204135
0.0686351 0.387701 0.0685893
0.0886549 0.386984 0.0610208
0.110628 0.386481 0.0537118
0.133852 0.38645 0.0473945
0.166125 0.391272 0.0465553
0.201572 0.399451 0.0504768
0.239765 0.412055 0.0614176
0.274205 0.423972 0.0755474
0.307179 0.436027 0.0910964
0.336492 0.445212 0.105241
0.364279 0.453178 0.118746
0.390509 0.459907 0.131792
0.411337 0.462348 0.14107
0.433722 0.465202 0.152255
0.451225 0.46511 0.158984
0.468711 0.464408 0.165316
0.483879 0.461189 0.169116
0.497688 0.456153 0.170657
0.511284 0.451759 0.172854
0.523018 0.447913 0.174395
0.535103 0.4448 0.175952
0.546273 0.442084 0.1785
0.556985 0.439902 0.18146
0.567819 0.438209 0.184192
0.577264 0.437415 0.187686
0.586221 0.437232 0.191836
0.595178 0.436851 0.19472
0.605859 0.437415 0.195941
0.616846 0.438239 0.194476
0.628183 0.438651 0.191882
0.640345 0.438666 0.188418
0.653986 0.438849 0.182956
0.668589 0.439139 0.176226
0.077409 0.401679 0.0775158
0.0968795 0.401312 0.0711376
0.118242 0.400626 0.0650645
0.142519 0.400885 0.0605325
0.172061 0.404517 0.0592508
0.205295 0.41181 0.0628977
0.240116 0.422538 0.070985
0.272267 0.434562 0.0834516
0.302861 0.446021 0.0970016
0.332128 0.455711 0.110643
0.360754 0.465095 0.124971
0.386999 0.472816 0.138933
0.410132 0.477409 0.151278
0.434012 0.482277 0.164904
0.452399 0.483879 0.169497
0.472847 0.486809 0.162844
0.490593 0.484993 0.159197
0.507164 0.480797 0.159731
0.523354 0.476951 0.159838
0.536721 0.47277 0.161944
0.551461 0.46923 0.162371
0.56463 0.46566 0.163622
0.579217 0.463371 0.161669
0.593011 0.461067 0.159182
0.60737 0.460075 0.154421
0.62295 0.459297 0.148226
0.639048 0.458518 0.141848
0.655085 0.457893 0.135302
0.669444 0.457633 0.129335
0.684535 0.45742 0.123568
0.698802 0.456703 0.119356
0.71371 0.456809 0.113756
0.729793 0.457191 0.108248
0.0869764 0.414984 0.0874647
0.104753 0.414252 0.0808728
0.12636 0.415 0.0753948
0.148928 0.416114 0.0706188
0.175692 0.418189 0.0673381
0.207721 0.425238 0.0708476
0.239734 0.434409 0.0773022
0.271977 0.44538 0.090425
0.301167 0.455589 0.102861
0.329839 0.465187 0.116945
0.35845 0.475059 0.132219
0.383825 0.482597 0.14609
0.408026 0.489158 0.159625
0.430442 0.497719 0.15903
0.449271 0.504097 0.14049
0.471977 0.511101 0.111635
0.494087 0.511482 0.0977035
0.518364 0.509911 0.0870832
0.54049 0.506233 0.0835737
0.55996 0.500069 0.0875715
0.579705 0.494881 0.0898299
0.596613 0.490974 0.0895399
0.615305 0.488594 0.0857099
0.633341 0.486244 0.0817578
0.649882 0.485069 0.0794232
0.665339 0.483864 0.0783703
0.680766 0.48307 0.0776989
0.694743 0.482292 0.078584
0.706676 0.481666 0.0807813
0.719203 0.481605 0.0827802
0.730282 0.481636 0.0859388
0.740337 0.482567 0.0902876
0.750271 0.48452 0.0966049
0.0955367 0.427893 0.0962692
0.11339 0.427634 0.0907301
0.133455 0.429206 0.0849622
0.155703 0.430793 0.0805219
0.180835 0.431876 0.0768597
0.211353 0.438132 0.0804913
0.242145 0.446143 0.0872816
0.272328 0.455726 0.0988479
0.300328 0.464729 0.110857
0.328756 0.47451 0.12546
0.356374 0.484504 0.140383
0.381552 0.493004 0.154437
0.404456 0.503594 0.158343
0.422019 0.518257 0.123461
0.440604 0.528664 0.0881514
0.465583 0.537636 0.0569162
0.490349 0.539345 0.0455024
0.519203 0.539971 0.0387121
0.545235 0.535393 0.0419776
0.569329 0.52874 0.0472725
0.592309 0.522911 0.0522164
0.611719 0.519509 0.0539101
0.630838 0.516503 0.0574807
0.648524 0.513558 0.0616159
0.662867 0.512825 0.0685435
0.675319 0.512337 0.0766308
0.686641 0.512093 0.0856489
0.696574 0.511971 0.0943923
0.705516 0.512322 0.104265
0.713359 0.512673 0.113817
0.72079 0.51281 0.122408
0.727443 0.51516 0.136095
0.73434 0.517861 0.149294
0.105577 0.441367 0.105943
0.122988 0.44155 0.100694
0.141726 0.443107 0.0955673
0.163714 0.444221 0.0912947
0.187778 0.444892 0.0874495
0.217838 0.451225 0.0918441
0.247135 0.458381 0.0986496
0.276112 0.466789 0.109606
0.303426 0.475395 0.121462
0.330465 0.485206 0.135729
0.356878 0.495399 0.150546
0.380468 0.504326 0.162753
0.396399 0.521157 0.133684
0.410178 0.538033 0.0861372
0.429801 0.550134 0.0511177
0.456291 0.560098 0.0327306
0.483803 0.562814 0.0345769
0.515267 0.564385 0.0477607
0.540398 0.560052 0.0579843
0.565911 0.555367 0.069276
0.588006 0.551125 0.0797894
0.608194 0.54728 0.0874342
0.626764 0.544381 0.0964675
0.642298 0.542443 0.106783
0.653895 0.542672 0.119951
0.664683 0.543221 0.133303
0.674235 0.543816 0.145495
0.683452 0.543786 0.154849
0.691066 0.544976 0.16611
0.69781 0.546197 0.176379
0.705806 0.54789 0.187182
0.712825 0.550118 0.199664
0.720226 0.55259 0.212879
0.115755 0.454643 0.115785
0.132647 0.45536 0.111131
0.149767 0.456962 0.105226
0.17232 0.457511 0.1019
0.196765 0.459007 0.100328
0.224811 0.464347 0.104234
0.254063 0.471092 0.111818
0.281331 0.478111 0.121569
0.307744 0.486931 0.133501
0.332876 0.496437 0.147219
0.357855 0.506233 0.162005
0.374289 0.520439 0.148943
0.383536 0.54226 0.0945296
0.396643 0.559213 0.0510872
0.418799 0.573678 0.0273747
0.448631 0.581765 0.0343023
0.480491 0.583886 0.0590372
0.512764 0.585367 0.0891432
0.538888 0.582696 0.106249
0.563897 0.580697 0.12491
0.586038 0.577966 0.137865
0.605951 0.574823 0.149218
0.623957 0.572534 0.160784
0.636576 0.572305 0.173495
0.647868 0.572549 0.18526
0.658488 0.572717 0.196643
0.667887 0.573083 0.207034
0.676066 0.574639 0.21738
0.683604 0.576745 0.227497
0.691142 0.578592 0.237385
0.698817 0.580972 0.249439
0.706127 0.582986 0.260609
0.713115 0.585229 0.272236
0.12755 0.469322 0.127718
0.145083 0.470085 0.12314
0.162936 0.47068 0.118288
0.184863 0.470619 0.115801
0.208743 0.472969 0.115938
0.235431 0.477729 0.119249
0.262959 0.483726 0.126818
0.288487 0.490135 0.135607
0.313954 0.49929 0.148669
0.338781 0.508431 0.162081
0.356191 0.52166 0.156924
0.361334 0.543618 0.106966
0.368841 0.565621 0.0511788
0.385061 0.581796 0.0234226
0.413947 0.593805 0.0298924
0.446296 0.597696 0.06009
0.481636 0.600977 0.0974899
0.514015 0.602426 0.13019
0.541299 0.60264 0.154772
0.567346 0.603845 0.178729
0.588327 0.601801 0.192996
0.607614 0.601022 0.209491
0.624384 0.60032 0.22269
0.636057 0.600488 0.234028
0.64715 0.600504 0.243732
0.65864 0.601175 0.253971
0.667582 0.603174 0.263005
0.675868 0.605707 0.273442
0.684077 0.608255 0.284382
0.691249 0.609995 0.293202
0.699321 0.611597 0.302312
0.706493 0.613352 0.310994
0.713314 0.615244 0.320119
0.140398 0.484443 0.140429
0.158633 0.484657 0.13669
0.17734 0.484382 0.133394
0.197284 0.484108 0.131655
0.221653 0.487434 0.132555
0.24744 0.492088 0.135454
0.272892 0.49723 0.142992
0.296803 0.5037 0.152193
0.320958 0.511986 0.163195
0.338903 0.523323 0.161944
0.341833 0.545007 0.117403
0.344167 0.568338 0.0598764
0.355169 0.588403 0.0222782
0.379568 0.602274 0.0221866
0.414496 0.609995 0.0575113
0.450004 0.613718 0.0983291
0.489464 0.618143 0.14493
0.519829 0.620783 0.176989
0.548974 0.624643 0.20708
0.574838 0.626627 0.231434
0.596475 0.625757 0.248356
0.616724 0.626093 0.264927
0.631098 0.626291 0.274266
0.643061 0.625986 0.281697
0.655009 0.626719 0.290501
0.665461 0.628428 0.300023
0.67451 0.630503 0.308583
0.682963 0.632944 0.318288
0.691066 0.63563 0.327443
0.698451 0.637903 0.335882
0.705303 0.639292 0.342306
0.712261 0.641489 0.349554
0.71928 0.643519 0.355367
0.155581 0.497978 0.155581
0.1729 0.498619 0.151568
0.192386 0.498711 0.150637
0.212406 0.498924 0.149676
0.235874 0.502266 0.150225
0.259846 0.506218 0.153613
0.281773 0.51014 0.158877
0.30573 0.517464 0.167437
0.322515 0.527794 0.164096
0.323568 0.548226 0.123339
0.321279 0.572183 0.0665141
0.328328 0.593164 0.024506
0.349493 0.608789 0.0171969
0.38555 0.61767 0.0506142
0.423468 0.622248 0.0949569
0.461967 0.626841 0.143359
0.499016 0.632166 0.187091
0.530709 0.636378 0.219928
0.563165 0.641871 0.251957
0.586831 0.642878 0.269627
0.610483 0.645197 0.287541
0.629007 0.647166 0.300847
0.641764 0.648386 0.310201
0.654139 0.649973 0.319783
0.666148 0.651896 0.329229
0.675532 0.654078 0.337026
0.68481 0.656931 0.346014
0.692866 0.659892 0.353597
0.701228 0.662867 0.361532
0.708873 0.664622 0.366171
0.716136 0.665873 0.37113
0.722789 0.667185 0.375586
0.729046 0.668391 0.380423
0.172412 0.512215 0.172412
0.189334 0.512993 0.169436
0.208316 0.513069 0.168444
0.228687 0.513832 0.167865
0.250858 0.515938 0.168505
0.272236 0.520012 0.171191
0.293828 0.525322 0.175433
0.305577 0.537194 0.160998
0.305333 0.554849 0.121996
0.300008 0.579248 0.0666972
0.30425 0.598489 0.0282597
0.323629 0.614435 0.0176394
0.358633 0.622812 0.045243
0.398215 0.628641 0.0899367
0.43595 0.634226 0.136599
0.474678 0.640742 0.184817
0.510506 0.646632 0.223377
0.545357 0.653696 0.259586
0.575387 0.65919 0.285649
0.60058 0.662501 0.303593
0.625147 0.667048 0.321401
0.640436 0.668757 0.332219
0.654337 0.671183 0.342214
0.667491 0.673091 0.351537
0.678492 0.675441 0.359396
0.687678 0.677791 0.365713
0.697765 0.680934 0.372366
0.707454 0.683909 0.378515
0.714885 0.685725 0.382879
0.721691 0.687358 0.387427
0.728283 0.689021 0.391623
0.734646 0.690669 0.39617
0.740581 0.692485 0.40029
0.188861 0.527504 0.188861
0.205524 0.527626 0.18674
0.223148 0.527779 0.185214
0.24416 0.527993 0.185611
0.26479 0.530495 0.186633
0.278599 0.537591 0.179522
0.283085 0.551537 0.151308
0.282658 0.566995 0.111864
0.277882 0.587869 0.0642863
0.280293 0.606516 0.0283207
0.297047 0.620432 0.016083
0.330678 0.629023 0.0378882
0.371176 0.634104 0.0791638
0.410437 0.639811 0.125734
0.450278 0.646799 0.174609
0.488457 0.654719 0.21973
0.523827 0.662654 0.258732
0.559869 0.671916 0.292912
0.58732 0.676158 0.313497
0.615274 0.681544 0.33312
0.636728 0.684672 0.346471
0.65301 0.687343 0.357153
0.668376 0.690135 0.366567
0.681849 0.693523 0.374472
0.692653 0.696635 0.380484
0.702953 0.699977 0.385916
0.713298 0.703456 0.391104
0.721248 0.705913 0.395499
0.727871 0.707881 0.399512
0.73434 0.709789 0.403952
0.740505 0.711833 0.408164
0.745937 0.713283 0.4112
0.751736 0.715068 0.415442
0.205112 0.540795 0.204852
0.22211 0.541482 0.203769
0.238178 0.542153 0.201083
0.249607 0.54638 0.191653
0.254398 0.55465 0.171649
0.255314 0.566598 0.140261
0.252491 0.583337 0.0971389
0.252232 0.599847 0.0566262
0.256535 0.617182 0.0244602
0.273259 0.628153 0.0139773
0.306661 0.635859 0.0343481
0.345586 0.639612 0.0709087
0.386435 0.645182 0.117174
0.427008 0.652445 0.165881
0.467765 0.661677 0.215503
0.503471 0.669718 0.255375
0.539391 0.679316 0.291951
0.571893 0.686564 0.319265
0.601755 0.692302 0.339971
0.629923 0.698665 0.357565
0.649699 0.702296 0.368414
0.667735 0.706538 0.377554
0.683558 0.711147 0.385122
0.695537 0.714687 0.390417
0.707088 0.718364 0.39617
0.718303 0.722286 0.401343
0.727031 0.725063 0.406149
0.73344 0.726131 0.40943
0.739452 0.727672 0.413321
0.745434 0.729 0.417227
0.751354 0.730098 0.421012
0.757046 0.73138 0.425208
0.762829 0.732555 0.429007
0.207599 0.560616 0.206989
0.212253 0.566354 0.192386
0.211902 0.57528 0.169528
0.211765 0.584176 0.143221
0.216464 0.590204 0.117968
0.218189 0.602564 0.0814984
0.224186 0.613764 0.0491188
0.232624 0.628443 0.0223392
0.251392 0.638498 0.0154879
