Assets/Scenes/City_Trees.cube
TITLE "Generated by Resolve"
LUT_3D_SIZE 9
0.0217441 0.0229191 0.0209659
0.132708 0.00483711 0.00274662
0.239078 0 0
0.336492 0 0
0.391455 0 0
0.462318 0 0
0.534524 0 0
0.60145 0 0
0.650492 0 0
0 0.180682 0
0.199664 0.196597 0
0.381033 0.135424 0
0.469718 0.108888 0
0.521187 0.107485 0
0.575967 0.101823 0
0.61529 0.103044 0
0.645502 0.111254 0
0.67866 0.116793 0
0 0.317235 0
0.0921645 0.325902 0
0.328649 0.324773 0.0276799
0.390875 0.302174 0.0535592
0.435828 0.28394 0.0742199
0.471397 0.27158 0.0831006
0.503578 0.268681 0.0943618
0.529335 0.271015 0.103227
0.557916 0.273442 0.112352
0 0.392844 0
0.130495 0.358129 0
0.315648 0.400931 0.06421
0.411902 0.408286 0.107942
0.46569 0.388479 0.121721
0.513237 0.373053 0.129656
0.550835 0.366354 0.13872
0.584421 0.367437 0.151125
0.613977 0.370626 0.165148
0.077409 0.401679 0.0775158
0.172061 0.404517 0.0592508
0.302861 0.446021 0.0970016
0.410132 0.477409 0.151278
0.490593 0.484993 0.159197
0.551461 0.46923 0.162371
0.60737 0.460075 0.154421
0.669444 0.457633 0.129335
0.729793 0.457191 0.108248
0.115755 0.454643 0.115785
0.196765 0.459007 0.100328
0.307744 0.486931 0.133501
0.383536 0.54226 0.0945296
0.480491 0.583886 0.0590372
0.586038 0.577966 0.137865
0.647868 0.572549 0.18526
0.683604 0.576745 0.227497
0.713115 0.585229 0.272236
0.172412 0.512215 0.172412
0.250858 0.515938 0.168505
0.305333 0.554849 0.121996
0.358633 0.622812 0.045243
0.510506 0.646632 0.223377
0.625147 0.667048 0.321401
0.678492 0.675441 0.359396
0.714885 0.685725 0.382879
0.740581 0.692485 0.40029
0.163348 0.598825 0.163027
0.182284 0.624399 0.069276
0.266957 0.650889 0.0433967
0.427253 0.66891 0.205402
0.569512 0.707103 0.343069
0.676097 0.738048 0.397131
0.732189 0.750866 0.422309
0.761395 0.759197 0.43859
0.781628 0.762066 0.448997
0.158984 0.686915 0.159503
0.237644 0.683558 0.140764
0.377813 0.687022 0.22414
0.503578 0.717021 0.337118
0.622721 0.761349 0.408591
0.714717 0.78587 0.442054
0.762539 0.797406 0.459754
0.790082 0.803784 0.470481
0.808759 0.807507 0.477852
0.00494392 0.0052491 0.116014
0.143374 0.00218204 0.142153
0.274235 0 0.115801
0.386557 0 0.0851301
0.441291 0 0.0903487
0.511437 0 0.0983597
0.581094 0 0.11194
0.636957 0 0.126253
0.685054 0 0.134646
0 0.179873 0.181735
0.192203 0.18883 0.18999
0.363195 0.117433 0.120348
0.492744 0.0663615 0.0693217
0.575219 0.0458534 0.0478218
0.606119 0.0628824 0.0650645
0.642939 0.0719768 0.0738689
0.674922 0.0809339 0.0827497
0.706798 0.0885176 0.0902113
0 0.326726 0.0890516
0.0967727 0.320653 0.0948806
0.328252 0.324361 0.183627
0.397589 0.287236 0.14641
0.486305 0.235782 0.0760204
0.515953 0.22562 0.0991226
0.518471 0.232654 0.133333
0.535637 0.236698 0.148089
0.563317 0.241352 0.160037
0 0.389624 0.106111
0.124575 0.365377 0.123537
0.290303 0.390723 0.150713
0.412665 0.407782 0.171954
0.484489 0.374319 0.152544
0.53492 0.345968 0.157397
0.564797 0.341573 0.177752
0.596506 0.341146 0.189197
0.620676 0.342473 0.203143
0.0675669 0.415915 0.178546
0.116747 0.423728 0.115923
0.242405 0.432898 0.112581
0.383764 0.474784 0.169451
0.497475 0.489525 0.157198
0.569696 0.457298 0.18822
0.622461 0.444968 0.196826
0.676219 0.439307 0.184802
0.740566 0.435355 0.166247
0.106645 0.471611 0.203693
0.165759 0.476219 0.165011
0.243153 0.482582 0.135286
0.353613 0.520439 0.170672
0.453086 0.588937 0.0820478
0.591485 0.581659 0.17113
0.665171 0.569009 0.201251
0.706615 0.566384 0.237079
0.739803 0.56939 0.272663
0.166903 0.527596 0.249943
0.206332 0.534218 0.205539
0.271824 0.547311 0.179141
0.298192 0.61619 0.0640879
0.47921 0.644648 0.24126
0.623362 0.673518 0.35729
0.686442 0.681941 0.387091
0.722637 0.686061 0.407797
0.748135 0.690074 0.422492
0.0852827 0.637079 0.195224
0.0982071 0.658274 0.0977646
0.225696 0.656306 0.110735
0.391211 0.661204 0.236637
0.547524 0.698787 0.378317
0.670527 0.738521 0.441825
0.73254 0.75552 0.467231
0.764446 0.761913 0.480522
0.78468 0.764675 0.490837
0.145495 0.698711 0.244526
0.242451 0.695857 0.241962
0.381201 0.691783 0.309346
0.492363 0.710216 0.386755
0.605402 0.750698 0.454231
0.706889 0.78085 0.491234
0.759243 0.796918 0.510628
0.788632 0.803204 0.521324
0.808316 0.806332 0.528618
0 0 0.204608
0.120623 0 0.259312
0.278523 0 0.276783
0.396323 0 0.266011
0.465049 0 0.248325
0.542428 0 0.244816
0.611048 0 0.254078
0.661997 0 0.2636
0.708446 0 0.266499
0 0.147265 0.364614
0.153033 0.148943 0.383993
0.358099 0.111986 0.356802
0.498085 0.0684977 0.315953
0.620737 0.023209 0.264515
0.647471 0.0428779 0.23624
0.674708 0.0587625 0.225879
0.709194 0.0690929 0.22295
0.745907 0.0761883 0.223621
0 0.309514 0.313191
0.117327 0.3093 0.312459
0.322316 0.318502 0.320516
0.386023 0.279225 0.281544
0.481254 0.220325 0.223713
0.640772 0.153613 0.156817
0.649195 0.162295 0.16524
0.574258 0.203937 0.205325
0.578958 0.221073 0.222187
0 0.369451 0.269535
0.13547 0.375875 0.275486
0.292821 0.389838 0.291432
0.40824 0.403174 0.306157
0.474815 0.36437 0.269963
0.536049 0.317159 0.225666
0.583825 0.293523 0.206592
0.613474 0.291096 0.212085
0.638544 0.296727 0.22652
0.067277 0.419928 0.27834
0.114183 0.438331 0.244694
0.25687 0.445792 0.255589
0.374853 0.465217 0.284993
0.495491 0.485756 0.273548
0.570687 0.449958 0.276509
0.617929 0.4309 0.276081
0.660105 0.423423 0.273381
0.715297 0.417868 0.262531
0.107713 0.475868 0.289265
0.137636 0.492927 0.245197
0.254337 0.498939 0.253468
0.350332 0.511833 0.273671
0.447288 0.577081 0.224598
0.59263 0.582818 0.304494
0.66363 0.569894 0.319356
0.705852 0.567483 0.337362
0.736263 0.571618 0.361196
0.169924 0.533272 0.323171
0.190753 0.55317 0.279622
0.209888 0.598856 0.20856
0.307576 0.613458 0.210712
0.473991 0.633677 0.329747
0.626383 0.674723 0.436912
0.687938 0.684718 0.463004
0.725078 0.689952 0.476341
0.75198 0.694545 0.488029
0.0369268 0.659205 0.263874
0.0935683 0.67599 0.214252
0.289479 0.663081 0.288304
0.418708 0.665385 0.358419
0.544747 0.692882 0.442298
0.667918 0.736141 0.502708
0.733318 0.756191 0.528191
0.767987 0.76553 0.54078
0.786892 0.765255 0.547906
0.158495 0.701778 0.337652
0.297627 0.701045 0.372625
0.432746 0.708141 0.432135
0.512673 0.720272 0.469108
0.601175 0.745693 0.507607
0.699779 0.776532 0.543145
0.758404 0.794766 0.563607
0.78851 0.80293 0.576471
0.808179 0.806165 0.584329
0 0 0.281697
0.104631 0 0.351705
0.265431 0 0.384894
0.377142 0 0.375723
0.464668 0 0.35964
0.549554 0 0.355032
0.619074 0 0.355505
0.671565 0 0.360494
0.715511 0 0.364004
0 0.124941 0.472313
0.122408 0.117647 0.527504
0.338521 0.0899519 0.51194
0.485222 0.0572366 0.48304
0.618555 0.0205081 0.430655
0.657435 0.0401312 0.367758
0.686381 0.0574502 0.346502
0.723156 0.0667582 0.335348
0.762692 0.0734875 0.326085
0 0.292897 0.435523
0.06421 0.289876 0.465919
0.29337 0.290028 0.39794
0.386297 0.278065 0.384573
0.456489 0.236469 0.34342
0.591913 0.172885 0.305715
0.674495 0.147234 0.276219
0.621637 0.182193 0.274937
0.608988 0.209033 0.2822
0.0241855 0.353033 0.355108
0.128939 0.36585 0.36875
0.292668 0.389425 0.391943
0.402426 0.398047 0.400366
0.471214 0.362341 0.365194
0.531685 0.315755 0.318593
0.581521 0.289082 0.292302
0.621744 0.278859 0.281086
0.654414 0.278584 0.281834
0.0778058 0.416068 0.347982
0.118456 0.43743 0.341329
0.27071 0.456916 0.360922
0.382803 0.468025 0.381353
0.492317 0.483528 0.371771
0.569253 0.448157 0.356664
0.607767 0.427878 0.351507
0.651865 0.419608 0.346487
0.695949 0.413458 0.341009
0.115496 0.47808 0.352865
0.140902 0.498878 0.329076
0.275776 0.5131 0.349325
0.329946 0.542794 0.328801
0.449805 0.568963 0.338827
0.591455 0.581689 0.400488
0.659159 0.574044 0.409094
0.699657 0.571771 0.419135
0.73225 0.571511 0.430503
0.177783 0.536095 0.380362
0.156939 0.574884 0.334646
0.198764 0.622263 0.295933
0.346197 0.624292 0.344686
0.484581 0.635966 0.413947
0.625544 0.673426 0.494347
0.693721 0.689723 0.518776
0.72961 0.694118 0.529397
0.753521 0.696529 0.538262
0.0268864 0.664973 0.338415
0.13283 0.674479 0.327718
0.338369 0.668757 0.40119
0.459937 0.681788 0.458869
0.556146 0.698955 0.50338
0.668452 0.734249 0.547341
0.734051 0.756909 0.575601
0.76759 0.765103 0.589471
0.785931 0.766079 0.595346
0.18024 0.70013 0.410834
0.335836 0.706554 0.455497
0.463737 0.722683 0.507134
0.539696 0.738674 0.538781
0.611307 0.751339 0.557641
0.698039 0.774212 0.588159
0.755276 0.791897 0.612711
0.788083 0.802075 0.628092
0.80763 0.80531 0.637217
0 0 0.31133
0.0907301 0 0.398749
0.237263 0 0.436851
0.351247 0 0.450111
0.459236 0 0.456092
0.549325 0 0.451041
0.615427 0 0.453346
0.667689 0 0.456535
0.712413 0 0.454383
0 0.126177 0.516503
0.104524 0.0997482 0.628107
0.307439 0.0665293 0.654017
0.456947 0.0444648 0.630747
0.576684 0.0312657 0.572122
0.633402 0.0478065 0.496498
0.67747 0.0596323 0.46363
0.720546 0.0668345 0.444862
0.759793 0.0755932 0.432441
0 0.275975 0.522377
0.0355993 0.260471 0.610758
0.257893 0.253635 0.526589
0.362158 0.254353 0.472068
0.447486 0.231022 0.444617
0.547234 0.188037 0.416968
0.619913 0.166812 0.388388
0.622217 0.182406 0.364828
0.629877 0.203708 0.360174
0.0527199 0.341207 0.419303
0.120363 0.347326 0.454444
0.270237 0.365209 0.475944
0.379522 0.37499 0.483177
0.46891 0.361639 0.466621
0.536522 0.324254 0.425177
0.593469 0.299367 0.395148
0.633783 0.289311 0.381552
0.667842 0.288319 0.374578
0.0917983 0.408667 0.411383
0.122011 0.42681 0.430426
0.265293 0.446647 0.450813
0.384405 0.468376 0.472496
0.487694 0.478111 0.483803
0.569253 0.446494 0.451804
0.61355 0.426947 0.431769
0.659403 0.417487 0.421592
0.721233 0.410163 0.413184
0.126757 0.474662 0.414786
0.156313 0.493507 0.412848
0.272862 0.518441 0.431403
0.317586 0.562203 0.433463
0.459617 0.570474 0.456764
0.591699 0.583154 0.490425
0.656672 0.574578 0.491096
0.697063 0.570367 0.492134
0.725338 0.570443 0.496971
0.188342 0.535836 0.43621
0.132464 0.584817 0.410758
0.217044 0.626093 0.410437
0.385183 0.632364 0.461265
0.508141 0.64445 0.506096
0.624796 0.671717 0.55172
0.696681 0.693401 0.580484
0.731777 0.697673 0.591058
0.754803 0.699275 0.595514
0.044358 0.661921 0.426581
0.160632 0.669505 0.426322
0.371466 0.674037 0.490898
0.489448 0.693874 0.542672
0.576883 0.712795 0.575662
0.664759 0.731121 0.602152
0.733074 0.756069 0.635904
0.768124 0.76611 0.655009
0.78735 0.76762 0.655833
0.211002 0.697414 0.488106
0.358587 0.709407 0.529641
0.482963 0.732723 0.577508
0.557015 0.754406 0.608042
0.628687 0.763226 0.627161
0.698222 0.7729 0.644892
0.753262 0.789609 0.667994
0.785077 0.798795 0.684718
0.804837 0.802518 0.693904
0 0 0.33283
0.0899519 0 0.416678
0.223011 0 0.478737
0.338003 0 0.521828
0.444953 0 0.536156
0.540368 0 0.537301
0.60592 0 0.538262
0.657389 0 0.540032
0.699901 0 0.541146
0 0.120302 0.565866
0.112001 0.108568 0.644587
0.27744 0.0808576 0.69453
0.405051 0.0700236 0.688853
0.512871 0.0633707 0.644373
0.600732 0.0601205 0.597299
0.653849 0.0667582 0.564858
0.700175 0.0733806 0.547555
0.736507 0.0829938 0.525689
0 0.262623 0.591546
0.0664378 0.249836 0.668498
0.220615 0.215717 0.74493
0.34786 0.214817 0.639323
0.438712 0.206546 0.565621
0.524376 0.185183 0.520943
0.576638 0.180865 0.478538
0.601541 0.192477 0.453559
0.629435 0.207401 0.441886
0.0654459 0.331014 0.47277
0.141985 0.33312 0.514412
0.242084 0.3355 0.569345
0.347539 0.343084 0.575631
0.444633 0.338216 0.55819
0.525963 0.31902 0.52256
0.58941 0.301823 0.495521
0.636225 0.295308 0.476326
0.670237 0.296834 0.466499
0.104967 0.400763 0.465415
0.149447 0.414176 0.504463
0.247944 0.426474 0.541756
0.361639 0.44567 0.55552
0.465263 0.457908 0.579065
0.572793 0.442329 0.56936
0.643442 0.424369 0.541665
0.709224 0.416007 0.527016
0.769177 0.408377 0.518486
0.141161 0.468071 0.470481
0.176791 0.483619 0.486976
0.273304 0.509987 0.514336
0.316518 0.551995 0.55877
0.468116 0.569726 0.576974
0.590875 0.581903 0.587549
0.653788 0.579263 0.584222
0.688899 0.57528 0.579461
0.722637 0.573434 0.577356
0.186435 0.539117 0.493858
0.125292 0.583215 0.501793
0.22652 0.617945 0.524132
0.397787 0.631296 0.558099
0.528756 0.654398 0.600458
0.635294 0.677501 0.632547
0.697292 0.692622 0.649378
0.731014 0.697261 0.655924
0.753353 0.698253 0.658442
0.0710918 0.652018 0.524834
0.178424 0.661738 0.527321
0.384894 0.673365 0.572747
0.501778 0.700099 0.618112
0.592111 0.722759 0.653162
0.674876 0.737362 0.673167
0.731304 0.753506 0.692805
0.768658 0.766369 0.712184
0.785748 0.765896 0.712077
0.233005 0.690654 0.567697
0.369268 0.707973 0.598413
0.48954 0.734524 0.642206
0.56495 0.757427 0.672526
0.642222 0.7729 0.694301
0.705623 0.778668 0.704219
0.751141 0.787228 0.718639
0.782223 0.796384 0.732341
0.803128 0.801877 0.740017
0 0 0.360372
0.0910048 0 0.449866
0.221561 0 0.523644
0.334478 0 0.57261
0.441077 0 0.592432
0.532464 0 0.595438
0.599771 0 0.598321
0.648905 0 0.597482
0.692866 0 0.598398
0 0.122179 0.606943
0.115526 0.111696 0.680323
0.265324 0.09514 0.718685
0.37998 0.0861067 0.726925
0.488396 0.0745098 0.699596
0.575586 0.0703899 0.659602
0.634913 0.0733501 0.633188
0.683009 0.0802472 0.613581
0.701411 0.0968795 0.577356
0 0.256336 0.636881
0.0846113 0.244709 0.701503
0.219608 0.214878 0.782254
0.332967 0.197955 0.765682
0.425971 0.194614 0.666926
0.498116 0.188281 0.595163
0.544961 0.192493 0.542092
0.579553 0.206958 0.513222
0.61912 0.214649 0.501488
0.0799725 0.326268 0.505516
0.16376 0.328817 0.550134
0.229221 0.316793 0.636484
0.326314 0.32166 0.650568
0.424887 0.318868 0.638605
0.510018 0.308492 0.607736
0.577966 0.29781 0.573693
0.627695 0.29601 0.553384
0.663386 0.302113 0.539651
0.113924 0.397879 0.505959
0.176349 0.407782 0.54992
0.23563 0.410452 0.613519
0.345113 0.428473 0.62446
0.446311 0.440482 0.625818
0.548943 0.434333 0.647745
0.642267 0.420615 0.640574
0.719387 0.411856 0.6327
0.781384 0.408515 0.624659
0.151507 0.466163 0.511864
0.19556 0.479438 0.54493
0.275959 0.498009 0.576806
0.311467 0.538811 0.657877
0.455695 0.557015 0.662043
0.581353 0.573617 0.655085
0.654246 0.583124 0.65275
0.69369 0.583261 0.650858
0.722927 0.588144 0.646998
0.181384 0.54165 0.544442
0.130083 0.577508 0.582162
0.229358 0.610391 0.615686
0.402213 0.628153 0.631785
0.530831 0.65333 0.655634
0.637247 0.678706 0.681971
0.6972 0.692744 0.696132
0.732601 0.700648 0.703578
0.752377 0.700236 0.701976
0.097612 0.644907 0.596765
0.192096 0.656397 0.603113
0.392462 0.672007 0.632593
0.50663 0.700923 0.669459
0.597101 0.726177 0.700557
0.684108 0.743847 0.718334
0.736492 0.756725 0.735683
0.769162 0.767102 0.747295
0.784817 0.766491 0.746685
0.253223 0.687129 0.622934
0.376257 0.706462 0.645884
0.494408 0.736141 0.684871
0.567605 0.758068 0.713252
0.647196 0.774929 0.733715
0.712779 0.782437 0.743526
0.756268 0.789227 0.755398
0.785183 0.797833 0.764584
0.803708 0.802274 0.7691
0 0 0.385565
0.0976272 0 0.481804
0.224628 0 0.564965
0.3355 0 0.615961
0.439857 0 0.63769
0.530327 0 0.640833
0.597955 0 0.643626
0.643061 0 0.641459
0.686168 0.00109865 0.639735
0 0.125521 0.642634
0.118791 0.115969 0.714199
0.263996 0.0986648 0.75433
0.370214 0.091722 0.768536
0.473793 0.0829938 0.743481
0.561151 0.0778058 0.710628
0.619989 0.0810864 0.684779
0.661768 0.0894636 0.660899
0.663325 0.114031 0.602258
0 0.255711 0.670069
0.0952468 0.242695 0.741802
0.228458 0.224506 0.757656
0.319799 0.213092 0.735241
0.403693 0.205081 0.684153
0.473396 0.201221 0.625498
0.521492 0.208362 0.5841
0.566247 0.216709 0.564248
0.610086 0.221927 0.552346
0.0940566 0.323766 0.52932
0.171374 0.327153 0.580743
0.23714 0.316075 0.660395
0.314611 0.310155 0.696513
0.409689 0.308827 0.689799
0.498695 0.299504 0.664225
0.567956 0.293767 0.637491
0.617166 0.296208 0.615946
0.656062 0.306416 0.598444
0.123919 0.396414 0.537575
0.186908 0.4047 0.58851
0.238056 0.40444 0.658518
0.33666 0.417105 0.673045
0.43682 0.429725 0.666056
0.531518 0.428611 0.689433
0.633066 0.416709 0.708995
0.71664 0.409339 0.711772
0.77882 0.407858 0.706172
0.162615 0.46537 0.545281
0.21265 0.476524 0.585809
0.276677 0.493812 0.629648
0.310475 0.529107 0.729412
0.446647 0.546151 0.725917
0.572641 0.565469 0.702037
0.65095 0.581643 0.69279
0.692531 0.590539 0.690959
0.722652 0.595254 0.690669
0.172168 0.546593 0.589166
0.120958 0.579705 0.65478
0.234485 0.605417 0.682124
0.401984 0.623102 0.680873
0.530602 0.652552 0.693538
0.633509 0.675822 0.712963
0.697643 0.693355 0.726543
0.733898 0.703517 0.733043
0.757931 0.707225 0.734295
0.125628 0.641123 0.645182
0.2065 0.652323 0.657465
0.398184 0.670405 0.672816
0.508721 0.700191 0.70219
0.597864 0.725017 0.727092
0.685039 0.744091 0.745663
0.739925 0.759731 0.760967
0.768872 0.766842 0.768551
0.786038 0.768704 0.769238
0.274434 0.685725 0.659831
0.382727 0.706401 0.679423
0.499306 0.738125 0.715633
0.570016 0.758099 0.739971
0.6495 0.775128 0.758007
0.717418 0.784741 0.768963
0.759487 0.791119 0.777462
0.786648 0.799542 0.785504
0.804654 0.802991 0.789593
0 0 0.416129
0.105318 0 0.527794
0.231403 0 0.6038
0.338628 0 0.655116
0.438972 0 0.677089
0.527504 0 0.680446
0.591318 0 0.678416
0.638193 0 0.680949
0.679454 0.00724804 0.677394
0 0.131075 0.677195
0.123857 0.121172 0.744945
0.258473 0.105348 0.790356
0.35996 0.0977951 0.804135
0.460609 0.0895094 0.788235
0.547906 0.0835431 0.757351
0.607095 0.0885328 0.732372
0.639246 0.099443 0.697978
0.621729 0.132448 0.618173
0 0.254459 0.706264
0.101305 0.241291 0.773846
0.23151 0.228061 0.759167
0.315084 0.231235 0.685039
0.387793 0.222339 0.668162
0.455848 0.21854 0.640818
0.509148 0.222339 0.620722
0.556359 0.224552 0.609598
0.599603 0.230884 0.597452
0.103243 0.322759 0.55317
0.179477 0.326406 0.609766
0.253361 0.321355 0.663981
0.31252 0.308705 0.720714
0.399954 0.302083 0.727565
0.486015 0.29572 0.71075
0.55555 0.292973 0.686564
0.607233 0.29865 0.664164
0.649332 0.310567 0.64773
0.132189 0.393988 0.565988
0.197314 0.40293 0.621286
0.249546 0.401389 0.68748
0.330373 0.40795 0.712306
0.429297 0.42298 0.701946
0.520272 0.425177 0.724025
0.623636 0.414176 0.761303
0.707927 0.407462 0.77435
0.772168 0.409125 0.769589
0.173159 0.46421 0.576883
0.230167 0.477028 0.617395
0.279881 0.487816 0.66807
0.310826 0.52134 0.786358
0.441245 0.538369 0.77731
0.565225 0.558404 0.742718
0.643519 0.576059 0.726253
0.689265 0.587961 0.724193
0.723598 0.599954 0.722164
0.16759 0.548363 0.633524
0.122438 0.578271 0.71664
0.237507 0.599863 0.73402
0.402441 0.619104 0.71783
0.525902 0.646189 0.722255
0.629389 0.672251 0.734447
0.695338 0.690959 0.746777
0.732738 0.703349 0.754314
0.758602 0.70837 0.757763
0.157824 0.639536 0.68249
0.223255 0.650492 0.698375
0.402579 0.668345 0.704356
0.509209 0.698024 0.727337
0.599725 0.725017 0.748257
0.682872 0.743511 0.764752
0.735088 0.754925 0.775036
0.765637 0.763882 0.782422
0.787778 0.770443 0.787076
0.298695 0.685588 0.687602
0.390082 0.707027 0.709087
0.501945 0.738018 0.739712
0.572427 0.758648 0.760113
0.65005 0.774899 0.776257
0.718807 0.785275 0.786923
0.75996 0.792264 0.793423
0.786343 0.799298 0.800534
0.805005 0.803265 0.804318
