Assets/Scenes/City_Trees.cube
TITLE "Generated by Resolve"
LUT_3D_SIZE 5
0.0217441 0.0229191 0.0209659
0.239078 0 0
0.391455 0 0
0.534524 0 0
0.650492 0 0
0 0.317235 0
0.328649 0.324773 0.0276799
0.435828 0.28394 0.0742199
0.503578 0.268681 0.0943618
0.557916 0.273442 0.112352
0.077409 0.401679 0.0775158
0.302861 0.446021 0.0970016
0.490593 0.484993 0.159197
0.60737 0.460075 0.154421
0.729793 0.457191 0.108248
0.172412 0.512215 0.172412
0.305333 0.554849 0.121996
0.510506 0.646632 0.223377
0.678492 0.675441 0.359396
0.740581 0.692485 0.40029
0.158984 0.686915 0.159503
0.377813 0.687022 0.22414
0.622721 0.761349 0.408591
0.762539 0.797406 0.459754
0.808759 0.807507 0.477852
0 0 0.204608
0.278523 0 0.276783
0.465049 0 0.248325
0.611048 0 0.254078
0.708446 0 0.266499
0 0.309514 0.313191
0.322316 0.318502 0.320516
0.481254 0.220325 0.223713
0.649195 0.162295 0.16524
0.578958 0.221073 0.222187
0.067277 0.419928 0.27834
0.25687 0.445792 0.255589
0.495491 0.485756 0.273548
0.617929 0.4309 0.276081
0.715297 0.417868 0.262531
0.169924 0.533272 0.323171
0.209888 0.598856 0.20856
0.473991 0.633677 0.329747
0.687938 0.684718 0.463004
0.75198 0.694545 0.488029
0.158495 0.701778 0.337652
0.432746 0.708141 0.432135
0.601175 0.745693 0.507607
0.758404 0.794766 0.563607
0.808179 0.806165 0.584329
0 0 0.31133
0.237263 0 0.436851
0.459236 0 0.456092
0.615427 0 0.453346
0.712413 0 0.454383
0 0.275975 0.522377
0.257893 0.253635 0.526589
0.447486 0.231022 0.444617
0.619913 0.166812 0.388388
0.629877 0.203708 0.360174
0.0917983 0.408667 0.411383
0.265293 0.446647 0.450813
0.487694 0.478111 0.483803
0.61355 0.426947 0.431769
0.721233 0.410163 0.413184
0.188342 0.535836 0.43621
0.217044 0.626093 0.410437
0.508141 0.64445 0.506096
0.696681 0.693401 0.580484
0.754803 0.699275 0.595514
0.211002 0.697414 0.488106
0.482963 0.732723 0.577508
0.628687 0.763226 0.627161
0.753262 0.789609 0.667994
0.804837 0.802518 0.693904
0 0 0.360372
0.221561 0 0.523644
0.441077 0 0.592432
0.599771 0 0.598321
0.692866 0 0.598398
0 0.256336 0.636881
0.219608 0.214878 0.782254
0.425971 0.194614 0.666926
0.544961 0.192493 0.542092
0.61912 0.214649 0.501488
0.113924 0.397879 0.505959
0.23563 0.410452 0.613519
0.446311 0.440482 0.625818
0.642267 0.420615 0.640574
0.781384 0.408515 0.624659
0.181384 0.54165 0.544442
0.229358 0.610391 0.615686
0.530831 0.65333 0.655634
0.6972 0.692744 0.696132
0.752377 0.700236 0.701976
0.253223 0.687129 0.622934
0.494408 0.736141 0.684871
0.647196 0.774929 0.733715
0.756268 0.789227 0.755398
0.803708 0.802274 0.7691
0 0 0.416129
0.231403 0 0.6038
0.438972 0 0.677089
0.591318 0 0.678416
0.679454 0.00724804 0.677394
0 0.254459 0.706264
0.23151 0.228061 0.759167
0.387793 0.222339 0.668162
0.509148 0.222339 0.620722
0.599603 0.230884 0.597452
0.132189 0.393988 0.565988
0.249546 0.401389 0.68748
0.429297 0.42298 0.701946
0.623636 0.414176 0.761303
0.772168 0.409125 0.769589
0.16759 0.548363 0.633524
0.237507 0.599863 0.73402
0.525902 0.646189 0.722255
0.695338 0.690959 0.746777
0.758602 0.70837 0.757763
0.298695 0.685588 0.687602
0.501945 0.738018 0.739712
0.65005 0.774899 0.776257
0.75996 0.792264 0.793423
0.805005 0.803265 0.804318
